glass/images/klass_avto_tabletka.svg

<svg width="768" height="1170" viewBox="0 0 768 1170" fill="none" xmlns="http://www.w3.org/2000/svg">
<line x1="651.222" y1="1169.07" x2="1016" y2="859.006" stroke="#D4D6D9" stroke-opacity="0.5"/>
<line x1="618.993" y1="1169.07" x2="983.774" y2="859.006" stroke="#D4D6D9" stroke-opacity="0.5"/>
<line x1="635.108" y1="1169.07" x2="999.889" y2="859.006" stroke="#D4D6D9" stroke-opacity="0.5"/>
<line x1="586.764" y1="1169.07" x2="951.545" y2="859.006" stroke="#D4D6D9" stroke-opacity="0.5"/>
<line x1="602.879" y1="1169.07" x2="967.66" y2="859.006" stroke="#D4D6D9" stroke-opacity="0.5"/>
<line x1="554.535" y1="1169.07" x2="919.316" y2="859.006" stroke="#D4D6D9" stroke-opacity="0.5"/>
<line x1="570.649" y1="1169.07" x2="935.431" y2="859.006" stroke="#D4D6D9" stroke-opacity="0.5"/>
<line x1="538.42" y1="1169.07" x2="903.202" y2="859.006" stroke="#D4D6D9" stroke-opacity="0.5"/>
<line x1="522.306" y1="1169.07" x2="887.088" y2="859.006" stroke="#D4D6D9" stroke-opacity="0.5"/>
<line x1="490.077" y1="1169.07" x2="854.859" y2="859.006" stroke="#D4D6D9" stroke-opacity="0.5"/>
<line x1="506.191" y1="1169.07" x2="870.973" y2="859.006" stroke="#D4D6D9" stroke-opacity="0.5"/>
<line x1="457.848" y1="1169.07" x2="822.63" y2="859.006" stroke="#D4D6D9" stroke-opacity="0.5"/>
<line x1="473.962" y1="1169.07" x2="838.744" y2="859.006" stroke="#D4D6D9" stroke-opacity="0.5"/>
<line x1="393.39" y1="1169.07" x2="758.172" y2="859.006" stroke="#D4D6D9" stroke-opacity="0.5"/>
<line x1="425.619" y1="1169.07" x2="790.401" y2="859.006" stroke="#D4D6D9" stroke-opacity="0.5"/>
<line x1="361.161" y1="1169.07" x2="725.942" y2="859.006" stroke="#D4D6D9" stroke-opacity="0.5"/>
<line x1="441.733" y1="1169.07" x2="806.515" y2="859.006" stroke="#D4D6D9" stroke-opacity="0.5"/>
<line x1="377.276" y1="1169.07" x2="742.057" y2="859.006" stroke="#D4D6D9" stroke-opacity="0.5"/>
<line x1="409.505" y1="1169.07" x2="833.613" y2="809.247" stroke="#0047FF"/>
<line x1="328.932" y1="1169.07" x2="693.713" y2="859.006" stroke="#D4D6D9" stroke-opacity="0.5"/>
<line x1="345.046" y1="1169.07" x2="709.828" y2="859.006" stroke="#D4D6D9" stroke-opacity="0.5"/>
<line x1="296.703" y1="1169.07" x2="661.484" y2="859.006" stroke="#D4D6D9" stroke-opacity="0.5"/>
<line x1="312.817" y1="1169.07" x2="677.599" y2="859.006" stroke="#D4D6D9" stroke-opacity="0.5"/>
<line x1="280.588" y1="1169.07" x2="645.37" y2="859.006" stroke="#D4D6D9" stroke-opacity="0.5"/>
<path d="M617.918 1059.89L550.973 1116.18L608.236 1116.18L674.758 1059.89L617.918 1059.89Z" fill="#0047FF"/>
<line x1="47.3051" y1="310.745" x2="412.087" y2="0.677321" stroke="#D4D6D9" stroke-opacity="0.5"/>
<line x1="15.0756" y1="310.745" x2="379.857" y2="0.677321" stroke="#D4D6D9" stroke-opacity="0.5"/>
<line x1="31.1908" y1="310.745" x2="395.972" y2="0.677321" stroke="#D4D6D9" stroke-opacity="0.5"/>
<line x1="-17.1534" y1="310.745" x2="347.628" y2="0.677321" stroke="#D4D6D9" stroke-opacity="0.5"/>
<line x1="-1.03818" y1="310.745" x2="363.743" y2="0.677321" stroke="#D4D6D9" stroke-opacity="0.5"/>
<line x1="-49.3824" y1="310.745" x2="315.399" y2="0.677321" stroke="#D4D6D9" stroke-opacity="0.5"/>
<line x1="-33.2677" y1="310.745" x2="331.514" y2="0.677321" stroke="#D4D6D9" stroke-opacity="0.5"/>
<line x1="-65.4967" y1="310.745" x2="299.285" y2="0.677321" stroke="#D4D6D9" stroke-opacity="0.5"/>
<line x1="-81.6109" y1="310.745" x2="283.171" y2="0.677321" stroke="#D4D6D9" stroke-opacity="0.5"/>
<line x1="-113.84" y1="310.745" x2="250.942" y2="0.677321" stroke="#D4D6D9" stroke-opacity="0.5"/>
<line x1="-97.7257" y1="310.745" x2="267.056" y2="0.677321" stroke="#D4D6D9" stroke-opacity="0.5"/>
<line x1="-146.069" y1="310.745" x2="218.713" y2="0.677321" stroke="#D4D6D9" stroke-opacity="0.5"/>
<line x1="-129.955" y1="310.745" x2="234.827" y2="0.677321" stroke="#D4D6D9" stroke-opacity="0.5"/>
<line x1="-210.527" y1="310.745" x2="154.255" y2="0.677321" stroke="#D4D6D9" stroke-opacity="0.5"/>
<line x1="-178.298" y1="310.745" x2="186.484" y2="0.677321" stroke="#D4D6D9" stroke-opacity="0.5"/>
<line x1="-242.756" y1="310.745" x2="122.025" y2="0.677321" stroke="#D4D6D9" stroke-opacity="0.5"/>
<line x1="-162.184" y1="310.745" x2="202.598" y2="0.677321" stroke="#D4D6D9" stroke-opacity="0.5"/>
<line x1="-226.641" y1="310.745" x2="138.14" y2="0.677321" stroke="#D4D6D9" stroke-opacity="0.5"/>
<line x1="-194.413" y1="310.745" x2="170.368" y2="0.677321" stroke="#D4D6D9" stroke-opacity="0.5"/>
<line x1="-274.985" y1="310.745" x2="89.796" y2="0.677321" stroke="#D4D6D9" stroke-opacity="0.5"/>
<line x1="-258.871" y1="310.745" x2="105.911" y2="0.677321" stroke="#D4D6D9" stroke-opacity="0.5"/>
<line x1="-307.214" y1="310.745" x2="57.567" y2="0.677321" stroke="#D4D6D9" stroke-opacity="0.5"/>
<line x1="-291.1" y1="310.745" x2="73.6817" y2="0.677321" stroke="#D4D6D9" stroke-opacity="0.5"/>
<line x1="-323.329" y1="310.745" x2="41.4527" y2="0.677321" stroke="#D4D6D9" stroke-opacity="0.5"/>
<path d="M241.061 62.1439L52.7598 221.313L71.9674 221.313L258.58 62.1436L241.061 62.1439Z" fill="white"/>
<path d="M90.8987 151.114L-97.4023 310.283L-78.1947 310.283L108.418 151.113L90.8987 151.114Z" fill="white"/>
<g opacity="0.5">
<mask id="mask0" mask-type="alpha" maskUnits="userSpaceOnUse" x="220" y="263" width="561" height="327">
<rect x="220.381" y="263.502" width="560.331" height="326.331" fill="#C4C4C4"/>
</mask>
<g mask="url(#mask0)">
<line x1="673.606" y1="573.888" x2="1038.39" y2="263.82" stroke="#0047FF" stroke-width="0.5"/>
<line x1="641.376" y1="573.888" x2="1006.16" y2="263.82" stroke="#0047FF" stroke-width="0.5"/>
<line x1="657.491" y1="573.888" x2="1022.27" y2="263.82" stroke="#0047FF" stroke-width="0.5"/>
<line x1="609.147" y1="573.888" x2="973.929" y2="263.82" stroke="#0047FF" stroke-width="0.5"/>
<line x1="625.262" y1="573.888" x2="990.044" y2="263.82" stroke="#0047FF" stroke-width="0.5"/>
<line x1="576.918" y1="573.888" x2="941.7" y2="263.82" stroke="#0047FF" stroke-width="0.5"/>
<line x1="593.033" y1="573.888" x2="957.814" y2="263.82" stroke="#0047FF" stroke-width="0.5"/>
<line x1="560.804" y1="573.888" x2="925.585" y2="263.82" stroke="#0047FF" stroke-width="0.5"/>
<line x1="544.69" y1="573.888" x2="909.471" y2="263.82" stroke="#0047FF" stroke-width="0.5"/>
<line x1="512.461" y1="573.888" x2="877.242" y2="263.82" stroke="#0047FF" stroke-width="0.5"/>
<line x1="528.575" y1="573.888" x2="893.356" y2="263.82" stroke="#0047FF" stroke-width="0.5"/>
<line x1="480.232" y1="573.888" x2="845.013" y2="263.82" stroke="#0047FF" stroke-width="0.5"/>
<line x1="496.346" y1="573.888" x2="861.127" y2="263.82" stroke="#0047FF" stroke-width="0.5"/>
<line x1="415.773" y1="573.888" x2="780.555" y2="263.82" stroke="#0047FF" stroke-width="0.5"/>
<line x1="448.003" y1="573.888" x2="812.784" y2="263.82" stroke="#0047FF" stroke-width="0.5"/>
<line x1="383.544" y1="573.888" x2="748.326" y2="263.82" stroke="#0047FF" stroke-width="0.5"/>
<line x1="464.117" y1="573.888" x2="828.898" y2="263.82" stroke="#0047FF" stroke-width="0.5"/>
<line x1="399.659" y1="573.888" x2="764.44" y2="263.82" stroke="#0047FF" stroke-width="0.5"/>
<line x1="431.887" y1="573.888" x2="796.669" y2="263.82" stroke="#0047FF" stroke-width="0.5"/>
<line x1="351.315" y1="573.888" x2="716.097" y2="263.82" stroke="#0047FF" stroke-width="0.5"/>
<line x1="367.43" y1="573.888" x2="732.211" y2="263.82" stroke="#0047FF" stroke-width="0.5"/>
<line x1="319.086" y1="573.888" x2="683.868" y2="263.82" stroke="#0047FF" stroke-width="0.5"/>
<line x1="335.201" y1="573.888" x2="699.982" y2="263.82" stroke="#0047FF" stroke-width="0.5"/>
<line x1="302.972" y1="573.888" x2="667.753" y2="263.82" stroke="#0047FF" stroke-width="0.5"/>
</g>
</g>
<path d="M473.702 358.399L321.817 486.106L451.735 486.107L602.661 358.399L473.702 358.399Z" fill="#F3F3F3" fill-opacity="0.67"/>
<path d="M566.33 311.126L481.564 382.778L504.995 382.778L589 311.126L566.33 311.126Z" fill="#0047FF"/>
<path d="M385.912 620.839L309.97 684.692L374.929 684.692L450.392 620.839L385.912 620.839Z" fill="#C4C4C4" fill-opacity="0.09"/>
</svg>

<svg width="768" height="1170" viewBox="0 0 768 1170" fill="none" xmlns="http://www.w3.org/2000/svg"><path stroke="#D4D6D9" stroke-opacity=".5" d="M651.222 1169.07L1016 859.006M618.993 1169.07l364.781-310.064M635.108 1169.07l364.781-310.064M586.764 1169.07l364.781-310.064M602.879 1169.07L967.66 859.006M554.535 1169.07l364.781-310.064M570.649 1169.07l364.782-310.064M538.42 1169.07l364.782-310.064M522.306 1169.07l364.782-310.064M490.077 1169.07l364.782-310.064M506.191 1169.07l364.782-310.064M457.848 1169.07L822.63 859.006M473.962 1169.07l364.782-310.064M393.39 1169.07l364.782-310.064M425.619 1169.07l364.782-310.064M361.161 1169.07l364.781-310.064M441.733 1169.07l364.782-310.064M377.276 1169.07l364.781-310.064"/><path stroke="#0047FF" d="M409.505 1169.07l424.108-359.823"/><path stroke="#D4D6D9" stroke-opacity=".5" d="M328.932 1169.07l364.781-310.064M345.046 1169.07l364.782-310.064M296.703 1169.07l364.781-310.064M312.817 1169.07l364.782-310.064M280.588 1169.07L645.37 859.006"/><path d="M617.918 1059.89l-66.945 56.29h57.263l66.522-56.29h-56.84z" fill="#0047FF"/><path stroke="#D4D6D9" stroke-opacity=".5" d="M47.305 310.745L412.087.677M15.076 310.745L379.857.677M31.191 310.745L395.972.677M-17.153 310.745L347.628.677M-1.038 310.745L363.743.677M-49.382 310.745L315.399.677M-33.268 310.745L331.514.677M-65.497 310.745L299.285.677M-81.611 310.745L283.171.677M-113.84 310.745L250.942.677M-97.726 310.745L267.056.677M-146.069 310.745L218.713.677M-129.955 310.745L234.827.677M-210.527 310.745L154.255.677M-178.298 310.745L186.484.677M-242.756 310.745L122.025.677M-162.184 310.745L202.598.677M-226.641 310.745L138.14.677M-194.413 310.745L170.368.677M-274.985 310.745L89.796.677M-258.871 310.745L105.911.677M-307.214 310.745L57.567.677M-291.1 310.745L73.682.677M-323.329 310.745L41.453.677"/><path d="M241.061 62.144L52.76 221.313h19.207L258.58 62.143h-17.519zM90.899 151.114L-97.402 310.283h19.207l186.613-159.17-17.52.001z" fill="#fff"/><g opacity=".5"><mask id="a" maskUnits="userSpaceOnUse" x="220" y="263" width="561" height="327"><path fill="#C4C4C4" d="M220.381 263.502h560.331v326.331H220.381z"/></mask><g mask="url(#a)" stroke="#0047FF" stroke-width=".5"><path d="M673.606 573.888L1038.39 263.82M641.376 573.888L1006.16 263.82M657.491 573.888L1022.27 263.82M609.147 573.888L973.929 263.82M625.262 573.888L990.044 263.82M576.918 573.888L941.7 263.82M593.033 573.888L957.814 263.82M560.804 573.888L925.585 263.82M544.69 573.888L909.471 263.82M512.461 573.888L877.242 263.82M528.575 573.888L893.356 263.82M480.232 573.888L845.013 263.82M496.346 573.888L861.127 263.82M415.773 573.888L780.555 263.82M448.003 573.888L812.784 263.82M383.544 573.888L748.326 263.82M464.117 573.888L828.898 263.82M399.659 573.888L764.44 263.82M431.887 573.888L796.669 263.82M351.315 573.888L716.097 263.82M367.43 573.888L732.211 263.82M319.086 573.888L683.868 263.82M335.201 573.888L699.982 263.82M302.972 573.888L667.753 263.82"/></g></g><path d="M473.702 358.399L321.817 486.106l129.918.001 150.926-127.708H473.702z" fill="#F3F3F3" fill-opacity=".67"/><path d="M566.33 311.126l-84.766 71.652h23.431L589 311.126h-22.67z" fill="#0047FF"/><path d="M385.912 620.839l-75.942 63.853h64.959l75.463-63.853h-64.48z" fill="#C4C4C4" fill-opacity=".09"/></svg>
